public/images/partner4.svg

<svg width="157" height="157" viewBox="0 0 157 157" fill="none" xmlns="http://www.w3.org/2000/svg">
<circle cx="78.5" cy="78.5" r="78.5" fill="url(#paint0_linear_110_1417)"/>
<g clip-path="url(#clip0_110_1417)">
<path d="M116.301 90.1771C114.916 89.3854 113.332 88.9896 111.749 88.9896C109.176 88.9896 106.999 89.9792 105.218 91.7604L103.041 90.375V66.625L105.416 65.2396C106.999 67.0208 109.374 68.0104 111.947 68.0104C113.53 68.0104 115.113 67.6146 116.499 66.8229C120.853 64.4479 122.238 58.9063 119.863 54.5521C118.28 51.7813 115.311 50 112.145 50C110.561 50 108.978 50.3958 107.593 51.1875C103.832 53.3646 102.447 57.7188 103.634 61.4792L101.259 62.8646L80.6759 50.9896V48.6146C84.6343 47.625 87.603 44.2604 87.603 39.9063C87.4051 34.9583 83.4468 31 78.4988 31C73.5509 31 69.5926 34.9583 69.5926 39.9063C69.5926 44.0625 72.5613 47.625 76.5197 48.6146V51.3854L55.9363 63.2604L53.5613 61.875C54.7488 57.9167 53.1655 53.7604 49.603 51.5833C48.2176 50.7917 46.6343 50.3958 45.0509 50.3958C41.8843 50.3958 38.9155 51.9792 37.3322 54.75C34.9572 59.1042 36.3426 64.4479 40.4988 67.0208C41.8843 67.8125 43.4676 68.2083 45.0509 68.2083C47.6238 68.2083 49.9988 67.2188 51.5822 65.4375L53.9572 66.8229V90.5729L51.5822 91.9583C49.9988 90.1771 47.6238 89.1875 45.0509 89.1875C43.4676 89.1875 41.8843 89.5833 40.4988 90.375C36.3426 92.75 34.7593 98.2917 37.3322 102.448C38.9155 105.219 41.8843 107 45.0509 107C46.6343 107 48.2176 106.604 49.4051 105.813C53.1655 103.635 54.5509 99.2812 53.3634 95.5208L55.7384 94.1354L76.3218 106.01V108.781C72.3634 109.771 69.3947 113.135 69.3947 117.49C69.3947 122.438 73.353 126.396 78.3009 126.396C83.2488 126.396 87.2072 122.438 87.2072 117.49C87.2072 113.333 84.2384 109.771 80.2801 108.781V106.01L100.863 94.1354L103.238 95.5208C102.051 99.4792 103.634 103.833 107.197 105.813C108.582 106.604 110.166 107 111.749 107C114.916 107 117.884 105.219 119.468 102.448C122.041 97.8958 120.655 92.5521 116.301 90.1771ZM110.363 56.7292C110.759 56.5313 111.353 56.3333 111.947 56.3333C112.936 56.3333 113.926 56.9271 114.52 57.9167C115.113 58.9063 114.916 59.6979 114.916 60.0938C114.718 60.4896 114.52 61.2813 113.53 61.875C113.134 62.0729 112.541 62.2708 111.947 62.2708C110.957 62.2708 109.968 61.6771 109.374 60.6875C108.582 59.3021 108.978 57.5208 110.363 56.7292ZM47.6238 60.6875C47.0301 61.6771 46.0405 62.2708 45.0509 62.2708C44.4572 62.2708 44.0613 62.0729 43.4676 61.875C42.0822 61.0833 41.6863 59.3021 42.478 57.9167C43.0718 56.9271 44.0613 56.3333 45.0509 56.3333C45.6447 56.3333 46.0405 56.5313 46.4363 56.7292C48.0197 57.5208 48.4155 59.3021 47.6238 60.6875ZM48.0197 98.4896C47.8218 98.8854 47.6238 99.6771 46.6343 100.271C46.2384 100.469 45.6447 100.667 45.2488 100.667C44.2593 100.667 43.2697 100.073 42.6759 99.0833C41.8843 97.6979 42.2801 95.9167 43.6655 95.125C44.0613 94.9271 44.6551 94.7292 45.2488 94.7292C46.2384 94.7292 47.228 95.3229 47.8218 96.3125C48.2176 97.3021 48.0197 98.0937 48.0197 98.4896ZM75.5301 39.9063C75.5301 38.3229 76.9155 36.9375 78.4988 36.9375C80.0822 36.9375 81.4676 38.3229 81.4676 39.9063C81.4676 41.4896 80.0822 42.875 78.4988 42.875C76.9155 42.875 75.5301 41.4896 75.5301 39.9063ZM78.4988 62.6667C80.2801 62.6667 81.6655 64.0521 81.6655 65.8333C81.6655 67.6146 80.2801 69 78.4988 69C76.7176 69 75.3322 67.6146 75.3322 65.8333C75.3322 64.0521 76.7176 62.6667 78.4988 62.6667ZM81.4676 117.094C81.4676 118.677 80.0822 120.063 78.4988 120.063C76.9155 120.063 75.5301 118.677 75.5301 117.094C75.5301 115.51 76.9155 114.125 78.4988 114.125C80.0822 114.125 81.4676 115.51 81.4676 117.094ZM82.4572 75.5313H80.478V88.1979H82.4572V92.1563H74.5405V88.1979H76.5197V75.5313H74.5405V71.5729H82.4572V75.5313ZM114.52 99.2813C113.926 100.271 112.936 100.865 111.947 100.865C111.353 100.865 110.957 100.667 110.363 100.469C108.978 99.6771 108.384 97.8958 109.374 96.3125C109.968 95.5208 110.957 94.9271 111.947 94.9271C112.541 94.9271 112.936 95.125 113.332 95.3229C114.322 95.9167 114.718 96.7083 114.718 97.1042C114.916 97.5 115.113 98.2917 114.52 99.2813Z" fill="white"/>
</g>
<defs>
<linearGradient id="paint0_linear_110_1417" x1="107" y1="-9.5" x2="27.0973" y2="157.809" gradientUnits="userSpaceOnUse">
<stop stop-color="#00C0FF"/>
<stop offset="1" stop-color="#0165FC"/>
</linearGradient>
<clipPath id="clip0_110_1417">
<rect width="95" height="95" fill="white" transform="translate(31 31)"/>
</clipPath>
</defs>
</svg>

<svg xmlns="http://www.w3.org/2000/svg" width="157" height="157" fill="none"><circle cx="78.5" cy="78.5" r="78.5" fill="url(#a)"/><g clip-path="url(#b)"><path fill="#fff" d="M116.301 90.177a9.2 9.2 0 0 0-4.552-1.187c-2.573 0-4.75.99-6.531 2.77l-2.177-1.385v-23.75l2.375-1.385c1.583 1.78 3.958 2.77 6.531 2.77a9.2 9.2 0 0 0 4.552-1.187c4.354-2.375 5.739-7.917 3.364-12.27C118.28 51.78 115.311 50 112.145 50a9.2 9.2 0 0 0-4.552 1.188c-3.761 2.177-5.146 6.53-3.959 10.291l-2.375 1.386L80.676 50.99v-2.375c3.958-.99 6.927-4.355 6.927-8.709C87.405 34.958 83.447 31 78.499 31a8.87 8.87 0 0 0-8.906 8.906c0 4.157 2.968 7.719 6.927 8.709v2.77L55.936 63.26l-2.375-1.385c1.188-3.958-.395-8.115-3.958-10.292a9.2 9.2 0 0 0-4.552-1.187c-3.167 0-6.135 1.583-7.719 4.354-2.375 4.354-.99 9.698 3.167 12.27a9.2 9.2 0 0 0 4.552 1.188c2.573 0 4.948-.99 6.531-2.77l2.375 1.385v23.75l-2.375 1.385c-1.583-1.78-3.958-2.77-6.531-2.77a9.2 9.2 0 0 0-4.552 1.187c-4.156 2.375-5.74 7.917-3.167 12.073 1.584 2.771 4.552 4.552 7.719 4.552 1.583 0 3.167-.396 4.354-1.187 3.76-2.178 5.146-6.532 3.958-10.292l2.375-1.386 20.584 11.875v2.771c-3.959.99-6.927 4.354-6.927 8.709a8.87 8.87 0 0 0 8.906 8.906 8.87 8.87 0 0 0 8.906-8.906c0-4.157-2.969-7.719-6.927-8.709v-2.771l20.583-11.875 2.375 1.386c-1.187 3.958.396 8.312 3.959 10.292a9.2 9.2 0 0 0 4.552 1.187c3.167 0 6.135-1.781 7.719-4.552 2.573-4.552 1.187-9.896-3.167-12.27m-5.938-33.448c.396-.198.99-.396 1.584-.396.989 0 1.979.594 2.573 1.584s.396 1.78.396 2.177c-.198.396-.396 1.187-1.386 1.781-.396.198-.989.396-1.583.396-.99 0-1.979-.594-2.573-1.584-.792-1.385-.396-3.166.989-3.958m-62.74 3.959c-.593.99-1.582 1.583-2.572 1.583-.594 0-.99-.198-1.583-.396-1.386-.792-1.782-2.573-.99-3.958.594-.99 1.583-1.584 2.573-1.584.594 0 .99.198 1.385.396 1.584.792 1.98 2.573 1.188 3.959m.397 37.802c-.198.395-.396 1.187-1.386 1.781-.396.198-.99.396-1.385.396-.99 0-1.98-.594-2.573-1.584-.792-1.385-.396-3.166.99-3.958.395-.198.99-.396 1.583-.396.99 0 1.979.594 2.573 1.584.396.99.198 1.78.198 2.177m27.51-58.584c0-1.583 1.385-2.968 2.969-2.968s2.969 1.385 2.969 2.968c0 1.584-1.386 2.969-2.97 2.969-1.583 0-2.968-1.385-2.968-2.969m2.969 22.76c1.781 0 3.166 1.386 3.166 3.167C81.666 67.615 80.28 69 78.5 69s-3.167-1.385-3.167-3.167c0-1.78 1.386-3.166 3.167-3.166m2.969 54.428c0 1.583-1.386 2.969-2.97 2.969-1.583 0-2.968-1.386-2.968-2.969 0-1.584 1.385-2.969 2.969-2.969s2.969 1.385 2.969 2.969m.99-41.563h-1.98v12.667h1.98v3.958H74.54v-3.958h1.98V75.53h-1.98v-3.958h7.917zm32.062 23.75c-.594.99-1.584 1.584-2.573 1.584-.594 0-.99-.198-1.584-.396-1.385-.792-1.979-2.573-.989-4.156.594-.792 1.583-1.386 2.573-1.386.594 0 .989.198 1.385.396.99.594 1.386 1.385 1.386 1.781.198.396.395 1.188-.198 2.177"/></g><defs><linearGradient id="a" x1="107" x2="27.097" y1="-9.5" y2="157.809" gradientUnits="userSpaceOnUse"><stop stop-color="#00C0FF"/><stop offset="1" stop-color="#0165FC"/></linearGradient><clipPath id="b"><path fill="#fff" d="M31 31h95v95H31z"/></clipPath></defs></svg>
